X: 2
T: The Walls Of Liscarrol
R: jig
M: 6/8
L: 1/8
K: Edor
f|edB BAF|ABA FAB|AFA dAF|ABc d2f|edB BAF|ABA FAB|AFA dAF|EFE E2:|z|ede fdB|dBA FAB|ABd efg|fed e2f|gfe fed|edB d2B|AFA dAF|EFE E2:|


Tune 232	Setting 21790

